!!!COM:	la Rue, Pierre de
!!!CDT:	~1452///-1518/11/20
!!!OPR:	Missa Sine nomine I
!!!ONM:	5
!!!OTL:	Agnus Dei
!!!AGN:	Mass; Agnus Dei
!!!SCT:	Rue1028e
!!!SCA:	Rue1028e
!!!voices:	4
**kern	**kern	**kern	**kern
*staff4	*staff3	*staff2	*staff1
*Ivox	*Ivox	*Ivox	*Ivox
*I"Bassus	*I"Tenor	*I"Contra	*I"Discantus
*I'B	*I'T	*I'C	*I'D
*>[A,B]	*>[A,B]	*>[A,B]	*>[A,B]
*>A	*>A	*>A	*>A
*clefF4	*clefGv2	*clefGv2	*clefG2
*k[b-]	*k[b-]	*k[b-]	*k[b-]
*M2/1	*M2/1	*M2/1	*M2/1
*met(C|)	*met(C|)	*met(C|)	*met(C|)
!!section: Agnus Dei I
!!!OMD: Agnus Dei I
=1-	=1-	=1-	=1-
1.G	0G	0r	0r
4F\	.	.	.
4E\	.	.	.
=2	=2	=2	=2
2D\	1B-	0r	0r
1E-	.	.	.
.	1c	.	.
4D\	.	.	.
4C/	.	.	.
=3	=3	=3	=3
0BB-	1.d	0r	0r
.	4c\	.	.
.	4B-\	.	.
=4	=4	=4	=4
2C/	2A/	0r	0r
1D	1B-	.	.
4C/	4A/	.	.
4BB-/	4G/	.	.
=5	=5	=5	=5
2AA/	2F/	0r	0r
2BB-/	1B-	.	.
1C	.	.	.
.	2A/	.	.
=6	=6	=6	=6
2BB-/	2B-\	0r	0g
2GG/	1d	.	.
2.BB-/	.	.	.
.	[2c\	.	.
4C/	.	.	.
=7	=7	=7	=7
2D\	4c\]	0r	1b-
.	4B-\	.	.
2E-i\	1B-	.	.
1C	.	.	1cc
.	2A/	.	.
=8	=8	=8	=8
0BB-	0B-	1.f	1.dd
.	.	4e\	4cc\
.	.	4d\	4b-\
=9	=9	=9	=9
1r	1r	2c\	2a/
.	.	1d	1b-
[1BB-	[1B-	.	.
.	.	4c\	4a/
.	.	4B-\	4g/
=10	=10	=10	=10
1BB-]	1B-]	0f	2f/
.	.	.	1b-
1F	1c	.	.
.	.	.	2a/
=11	=11	=11	=11
2BB-/	1d	1f	2b-\
2.B-\	.	.	1dd
.	2d\	1g	.
4G\	.	.	.
2c\	[2e\	.	[2cc\
=12	=12	=12	=12
2A\	4e\]	0f	4cc\]
.	4d\	.	4b-\
2B-\	2B-\	.	1b-
1F	1c	.	.
.	.	.	2a/
=13	=13	=13	=13
0BB-	0B-	1.f	1b-
.	.	.	2r
.	.	4e\	2b-\
.	.	4d\	.
=14	=14	=14	=14
0F	0r	1c	2a/
.	.	.	2.cc\
.	.	1f	.
.	.	.	4b-\
.	.	.	2a/
=15	=15	=15	=15
2.G\	0r	2e\	2g/
.	.	1d	1b-
4A\	.	.	.
2B-\	.	.	.
[2F\	.	[2c\	[2a/
=16	=16	=16	=16
2F\]	1.c	4c\]	2a/]
.	.	4B-\	.
2E\	.	2G/	2g/
[1F	.	1F	[1a
.	2A/	.	.
=17	=17	=17	=17
2F\]	1A	1.f	2a/]
2D\	.	.	2f/
1D	2A/	.	1f
.	[2B-\	2d\	.
=18	=18	=18	=18
2r	2B-\]	1d	2r
2D\	2A/	.	2f/
2.G\	2B-\	2r	2g/
.	[2d\	4B-\	[2b-\
4A\	.	4c\	.
=19	=19	=19	=19
2B-\	2d\]	4d\	2b-\]
.	.	4e\	.
2F\	2.c\	1f	2.a/
1G	.	.	.
.	4A/	.	4g/
.	2B-\	2e\	2g/
=20	=20	=20	=20
0F	1c	1.f	1a
.	2c\	.	2a/
.	[2A/	4e\	[2cc\
.	.	4d\	.
=21	=21	=21	=21
1r	2A/]	2c\	4cc\]
.	.	.	4dd\
.	1d	1f	2b-\
2r	.	.	1a
2F\	[2c\	[2f\	.
=22	=22	=22	=22
1G	2c\]	2f\]	2r
.	2B-\	2e\	2g/
1F	1c	1f	2.a/
.	.	.	4cc\
=23	=23	=23	=23
1G	2r	1r	1b-
.	2B-\	.	.
2A\	2c\	2r	1a
2F\	2A/	[2f\	.
=24	=24	=24	=24
1G	2.B-\	2f\]	2r
.	.	4e\	2b-\
.	4c\	4d\	.
2r	1A	2c\	2cc\
2F\	.	[2f\	2a/
=25	=25	=25	=25
1G	2r	2f\]	2.b-\
.	1d	2B-\	.
.	.	.	4cc\
2r	.	2.f\	1a
2F\	2c\	.	.
.	.	4g\	.
=26	=26	=26	=26
2G\	2B-\	2e\	0r
1D	2.A/	1f	.
.	4B-\	.	.
2C/	2c\	2e\	.
=27	=27	=27	=27
1D	2B-\	2f\	2r
.	2A/	2d\	2.dd\
1AA	1A	1e	.
.	.	.	4cc\
.	.	.	2cc\
=28	=28	=28	=28
2r	1r	4d\	2dd\
.	.	4e\	.
2A\	.	4f\	2a/
.	.	8e\L	.
.	.	8f\J	.
2G\	2r	1g	2.b-\
2E\	2G/	.	.
.	.	.	4cc\
=29	=29	=29	=29
1F	4A/	1c	1a
.	4G/	.	.
.	4A/	.	.
.	4B-\	.	.
2F\	1c	2r	2a/
[2A\	.	[2f\	[2cc\
=30	=30	=30	=30
2A\]	2A/	2f\]	4cc\]
.	.	.	4b-\
2G\	2B-\	2e\	2g/
2.F\	4c\	2f\	4a/
.	4B-\	.	4g/
.	4c\	2f\	4a/
4E\	4d\	.	4b-\
=31	=31	=31	=31
4C/	1e-i	1g	1cc
4D\	.	.	.
4E-i\	.	.	.
4F\	.	.	.
2G\	2d\	2g\	2b-\
2C/	[2c\	[2e-i\	[2a/
=32	=32	=32	=32
1E-i	4c\]	2e-\]	2a/]
.	4B-\	.	.
.	2G/	2c\	2.g/
1D	1A	1d	.
.	.	.	4f#i/
.	.	.	2f#i/
=33	=33	=33	=33
0GGl	0Gl	0dl	0gl
!!LO:LB:i:g=z
=34||	=34||	=34||	=34||
*>B	*>B	*>B	*>B
*clefF4	*clefGv2	*clefGv2	*clefG2
*k[b-]	*k[b-]	*k[b-]	*k[b-]
*M2/1	*M2/1	*M2/1	*M2/1
*met(C|)	*met(C|)	*met(C|)	*met(C|)
!!section: Agnus Dei II
!!!OMD: Agnus Dei II
0r	0r	1r	1g
.	.	1G	[1dd
=35	=35	=35	=35
0r	0r	1.d	2dd\]
.	.	.	2cc\
.	.	.	2b-\
.	.	2c\	2a/
=36	=36	=36	=36
0r	0r	2B-\	2b-\
.	.	2A/	2cc\
.	.	2B-\	2.dd\
.	.	2c\	.
.	.	.	4cc\
=37	=37	=37	=37
0r	0r	1d	2a/
.	.	.	2b-\
.	.	2.e-i\	4cc\
.	.	.	4b-\
.	.	.	4a/
.	.	4d\	4g/
=38	=38	=38	=38
0r	0r	4B-\	2.b-\
.	.	4c\	.
.	.	2.d\	.
.	.	.	4a/
.	.	.	4f/
.	.	4c\	4g/
.	.	4A/	[2a/
.	.	4B-\	.
=39	=39	=39	=39
0r	0r	4c\	2a/]
.	.	4B-\	.
.	.	4A/	1g
.	.	4G/	.
.	.	1A	.
.	.	.	2f#i/
=40	=40	=40	=40
1r	1G	0G	0g
1GG	[1d	.	.
=41	=41	=41	=41
1.D	2d\]	0r	0r
.	2c\	.	.
.	2B-\	.	.
2C/	2A/	.	.
=42	=42	=42	=42
2BB-/	2B-\	0r	0r
2AA/	2c\	.	.
2BB-/	2.d\	.	.
2C/	.	.	.
.	4c\	.	.
=43	=43	=43	=43
2.D\	2A/	0r	0r
.	2.B-\	.	.
4E-i\	.	.	.
2D\	.	.	.
.	4A/	.	.
[2C/	4c\	.	.
.	4B-\	.	.
=44	=44	=44	=44
4C/]	4A/	0r	0r
4BB-/	4G/	.	.
4AA/	1G	.	.
4GG/	.	.	.
1AA	.	.	.
.	2F#i/	.	.
=45	=45	=45	=45
0GG	1G	1r	1r
.	[1d	[1g	[1b-
=46	=46	=46	=46
1.G	2d\]	2g\]	2b-\]
.	2d\	2g\	2b-\
.	[1d	1g	1b-
2G\	.	.	.
=47	=47	=47	=47
1D	1d]	1f	1a
1G	1d	[1g	1b-
=48	=48	=48	=48
0C	1e-i	1g]	1.cc
.	1e-i	1g	.
.	.	.	4b-\
.	.	.	4a/
=49	=49	=49	=49
2.G\	1d	1g	1.b-
4A\	.	.	.
2B-\	2d\	1f	.
2F\	[2c\	.	[2a/
=50	=50	=50	=50
1G	2c\]	0d	2a/]
.	2B-\	.	1g
1D	1A	.	.
.	.	.	2f#i/
=51	=51	=51	=51
0GG	0G	1r	0g
.	.	1g	.
=52	=52	=52	=52
1G	0r	2g\	1r
.	.	1g	.
2G\	.	.	1dd
[2G\	.	2g\	.
=53	=53	=53	=53
2G\]	1d	2g\	2dd\
2G\	.	2g\	1dd
2G\	2d\	2.g\	.
2G\	[2d\	.	2dd\
.	.	8f\L	.
.	.	8e\J	.
=54	=54	=54	=54
2.G\	2d\]	1d	2dd\
.	2d\	.	2dd\
8F\L	.	.	.
8E\J	.	.	.
1D	2d\	2r	2.dd\
.	2d\	2d\	.
.	.	.	8cc\L
.	.	.	8b-\J
=55	=55	=55	=55
0r	2.d\	1f	2a/
.	.	.	2a/
.	8c\L	.	.
.	8B-\J	.	.
.	1A	2.f\	2.cc\
.	.	4g\	4b-\
=56	=56	=56	=56
0r	0r	2f\	2a/
.	.	2e\	2g/
.	.	2d\	1f
.	.	2c\	.
=57	=57	=57	=57
0r	1r	1B-	1g
.	2.c\	1A	1a
.	4d\	.	.
=58	=58	=58	=58
2.F\	2c\	0r	0r
.	2B-\	.	.
4G\	.	.	.
2F\	2A/	.	.
2E\	2G/	.	.
=59	=59	=59	=59
2D\	1F	0r	0r
2C/	.	.	.
1BB-	1G	.	.
=60	=60	=60	=60
0AA	0A	0c	2.a/
.	.	.	4b-\
.	.	.	4cc\
.	.	.	4b-\
.	.	.	4a/
.	.	.	4g/
=61	=61	=61	=61
0r	0r	2d\	1f
.	.	2A/	.
.	.	1B-	1g
=62	=62	=62	=62
2r	0c	0A	1a
2.F\	.	.	.
.	.	.	2.a/
4G\	.	.	.
[2A\	.	.	.
.	.	.	4b-\
=63	=63	=63	=63
2A\]	2.A/	1r	1cc
4F\	.	.	.
4G\	4B-\	.	.
2A\	2c\	2r	2.a/
[2F\	[2A/	2c\	.
.	.	.	4b-\
=64	=64	=64	=64
4F\]	4A/]	2.c\	2cc\
4G\	4B-\	.	.
1A	2c\	.	4a/
.	.	4d\	4b-\
.	4A/	2e\	2cc\
.	4B-\	.	.
[2F\	[2c\	[2f\	4a/
.	.	.	4b-\
=65	=65	=65	=65
4F\]	2c\]	2f\]	4cc\
4E\	.	.	4dd\
2C/	2c\	2g\	2ee\
2D\	1A	4f\	4ee\
.	.	4d\	2dd\
2AA/	.	2e\	.
.	.	.	4cc#i\
=66	=66	=66	=66
2r	2r	[0d	1.dd
1BB-	1F	.	.
2GG/	2G/	.	2b-\
=67	=67	=67	=67
0GG	1.G	0d]	1b-
.	.	.	2r
.	4A/	.	2b-\
.	4B-\	.	.
=68	=68	=68	=68
0r	4c\	0r	2a/
.	4B-\	.	.
.	4A/	.	1g
.	4G/	.	.
.	1A	.	.
.	.	.	2f#i/
=69	=69	=69	=69
2.GG/	0G	2r	0g
.	.	2B-\	.
4AA/	.	.	.
2BB-/	.	2.B-\	.
2GG/	.	.	.
.	.	4c\	.
=70	=70	=70	=70
1G	1r	2d\	1r
.	.	2B-\	.
1C	2.G/	1e-	2r
.	.	.	[2g/
.	4A/	.	.
=71	=71	=71	=71
1r	2B-\	1d	4g/]
.	.	.	4a/
.	2G/	.	2b-\
1C	2.c\	2r	2g/
.	.	[2c\	[2cc\
.	4B-\	.	.
=72	=72	=72	=72
2C/	1A	2c\]	4cc\]
.	.	.	4b-\
2.D\	.	1f	1a
.	2.A/	.	.
4E\	.	.	.
4F\	.	2f\	[2a/
4G\	4B-\	.	.
=73	=73	=73	=73
1A	2c\	2e\	4a/]
.	.	.	4b-\
.	2A/	2c\	2cc\
2r	1d	2.f\	2a/
2D\	.	.	[2dd\
.	.	4e\	.
=74	=74	=74	=74
2.D\	0A	1d	2dd\]
.	.	.	2.d/
4E\	.	.	.
2F\	.	1r	.
.	.	.	4e/
2D\	.	.	2f/
=75	=75	=75	=75
1G	0r	2r	2d/
.	.	2G/	1g
2.E\	.	2.G/	.
.	.	.	[2e/
4F\	.	4A/	.
=76	=76	=76	=76
2G\	0r	2B-\	4e/]
.	.	.	4f/
2E\	.	2G/	2g/
[1A	.	2.c\	2e/
.	.	.	[2a/
.	.	4B-\	.
=77	=77	=77	=77
2A\]	2r	0A	2a/]
2D\	2.F/	.	2f/
1D	.	.	2.f/
.	4G/	.	.
.	2A/	.	.
.	.	.	4g/
=78	=78	=78	=78
1r	2F/	1r	2a/
.	2.B-\	.	2f/
1G	.	1d	2.b-\
.	4A/	.	.
.	[2G/	.	.
.	.	.	4a/
=79	=79	=79	=79
0C	2G/]	1e	1g
.	2G/	.	.
.	2.c\	1e	2g/
.	.	.	[2cc\
.	4B-\	.	.
=80	=80	=80	=80
2.F\	2A/	0f	4cc\]
.	.	.	4b-\
.	2.d\	.	2a/
4E\	.	.	.
1D	.	.	2.dd\
.	4c\	.	.
.	4B-\	.	.
.	4A/	.	4cc\
=81	=81	=81	=81
2E-\	0G	0g	4b-\
.	.	.	4a/
2C/	.	.	2.cc\
1E-i	.	.	.
.	.	.	4b-\
.	.	.	4a/
.	.	.	4g/
=82	=82	=82	=82
2D\	4A/	2r	2.f/
.	4G/	.	.
2.F\	4A/	2f\	.
.	4B-\	.	4g/
.	4c\	2.f\	4a/
4BB-/	4d\	.	4b-\
4F\	[2c\	.	[2a/
4E\	.	4g\	.
=83	=83	=83	=83
4F\	4c\]	2f\	4a/]
4D\	4d\	.	4g/
2G\	2B-\	2e\	1g
1D	1A	1d	.
.	.	.	2f#i/
=84	=84	=84	=84
0GGl	0Gl	4d\	0gl
.	.	4c\	.
.	.	4B-\	.
.	.	4A/	.
.	.	1B-l	.
==	==	==	==
*-	*-	*-	*-
!!!RDF**kern: l=long note in original notation
!!!RDF**kern: i=editorial accidental
!!!ENC:	Chris Gage 6/10/2013
!!!END:	2013/08/05/
!!!EED:	Jesse Rodin
!!!EEV:	2013/08/05/
!!!ONB:	Translated from MusicXML and edited on 2013/08/05/ by Craig Sapp
!!muse2ps: T^@{OPR}^u^@{ONM}{. }@{OTL}^C^@{COM}^i2I150v85,85,85,150Q16
